brandFactory_export/3.Masa/Calavera _3Masa.svg

<?xml version="1.0" encoding="UTF-8"?>
<svg width="24px" height="24px" viewBox="0 0 24 24" version="1.1" xmlns="http://www.w3.org/2000/svg" xmlns:xlink="http://www.w3.org/1999/xlink">
    <title>3.Masa/Calavera _3Masa</title>
    <g id="Symbols" stroke="none" stroke-width="1" fill="none" fill-rule="evenodd">
        <g id="3.Masa/Calavera-_3Masa" fill="#5CB615" fill-rule="nonzero">
            <path d="M16.6571429,14.3394958 C16.6033613,14.3394958 16.5495798,14.3428571 16.4957983,14.3428571 L16.3747899,14.3428571 C14.7747899,14.3193277 12.9092437,13.3680672 12.9092437,10.7596639 C12.9092437,10.6016807 12.9159664,10.4504202 12.9294118,10.3058824 C13.1310924,8.03361345 14.8991597,7.21008403 16.3546218,7.19663866 C16.4420168,7.19663866 16.5563025,7.19663866 16.6470588,7.2 C18.1428571,7.23361345 19.8302521,8.04705882 20.0789916,10.2184874 C20.0991597,10.3932773 20.1092618,10.5815126 20.1092618,10.7798319 C20.1159664,13.3579832 18.2504202,14.3092437 16.6571429,14.3394958 M13.6991597,17.5327731 C13.302521,17.7008403 12.8453782,17.5159664 12.6739496,17.1193277 L12.2369748,16.0907563 C12.0689076,15.697479 12.2571429,15.2403361 12.6537815,15.0756303 C13.0504202,14.9109244 13.507563,15.092437 13.6789916,15.4890756 L14.112605,16.5176471 C14.2840336,16.9109244 14.0957983,17.3647059 13.6991597,17.5327731 M11.4739496,16.0907563 L11.0369748,17.1159664 C10.8689076,17.512605 10.4117647,17.697479 10.0117647,17.5294118 C9.61512605,17.3647059 9.4302521,16.9142857 9.59159664,16.5176471 L9.59159664,16.5142857 L10.0285714,15.4857143 C10.2,15.092437 10.6571429,14.9109244 11.0537815,15.0722689 C11.4571429,15.2436975 11.6420168,15.697479 11.4739496,16.0907563 M7.30252101,14.3394958 C7.2487395,14.3394958 7.19495798,14.3428571 7.14117647,14.3428571 L7.02352941,14.3428571 C5.42352941,14.3193277 3.55798319,13.3680672 3.55798319,10.7596639 C3.55798319,10.6016807 3.56470588,10.4504202 3.57815126,10.3058824 C3.77983193,8.03361345 5.5512605,7.21008403 7.00336134,7.19663866 C7.10084034,7.19327731 7.20840336,7.19663866 7.29579832,7.2 C8.79159664,7.23361345 10.4789916,8.04705882 10.7310924,10.2184874 C10.7512605,10.3932773 10.7613445,10.5815126 10.7613445,10.7798319 C10.7613445,13.3579832 8.89915966,14.3092437 7.30252101,14.3394958 M12.2941176,0.0134453782 C11.9680672,0 11.5983193,0 11.2621849,0 C9.0907563,0.0100840336 1.01008403,0.756302521 1.01008403,10.7058824 C1.01008403,15.7277311 3.0907563,18.4201681 5.42689076,19.8420168 L5.42689076,20.6184874 C5.42689076,21.6033613 5.71596639,22.3731092 6.29411765,22.8739496 C6.83865546,23.3680672 7.63529412,23.6201681 8.65378151,23.6201681 L15.0571429,23.6201681 C16.0722689,23.6201681 16.8588235,23.3680672 17.4033613,22.8739496 C17.9680672,22.3697479 18.2470588,21.6033613 18.2470588,20.6151261 L18.2470588,19.8319328 C20.5831933,18.4 22.6638655,15.7277311 22.6638655,10.7630252 C22.6638655,0.894117647 14.4084034,0.0571428571 12.2941176,0.0134453782" id="Calavera-_3Masa"></path>
        </g>
    </g>
</svg>

<svg width="24" height="24" viewBox="0 0 24 24" xmlns="http://www.w3.org/2000/svg"><path d="M16.657 14.34c-.054 0-.107.003-.161.003h-.121c-1.6-.024-3.466-.975-3.466-3.583 0-.158.007-.31.02-.454.202-2.272 1.97-3.096 3.426-3.11.087 0 .201 0 .292.004 1.496.034 3.183.847 3.432 3.018.02.175.03.364.03.562.007 2.578-1.859 3.53-3.452 3.56M13.7 17.532a.784.784 0 01-1.025-.414l-.437-1.028a.773.773 0 01.417-1.015.787.787 0 011.025.413l.434 1.029a.77.77 0 01-.414 1.015m-2.225-1.442l-.437 1.025a.782.782 0 01-1.025.413.775.775 0 01-.42-1.011v-.004l.437-1.028a.793.793 0 011.025-.414.775.775 0 01.42 1.019m-4.171-1.752c-.054 0-.108.004-.162.004h-.117c-1.6-.024-3.466-.975-3.466-3.583 0-.158.007-.31.02-.454.202-2.272 1.973-3.096 3.425-3.11.098-.003.205 0 .293.004 1.496.034 3.183.847 3.435 3.018.02.175.03.364.03.562 0 2.578-1.862 3.53-3.458 3.56M12.294.012C11.968 0 11.598 0 11.262 0 9.091.01 1.01.756 1.01 10.706c0 5.022 2.08 7.714 4.417 9.136v.776c0 .985.289 1.755.867 2.256.545.494 1.341.746 2.36.746h6.403c1.015 0 1.802-.252 2.346-.746.565-.504.844-1.27.844-2.259v-.783c2.336-1.432 4.417-4.104 4.417-9.069 0-9.869-8.256-10.706-10.37-10.75" fill="#5CB615" fill-rule="nonzero"/></svg>
